icon_installer/data/icons/scalable/actions/show-violence3-symbolic.svg

<?xml version="1.0" encoding="UTF-8"?>
<svg height="16px" viewBox="0 0 16 16" width="16px" xmlns="http://www.w3.org/2000/svg">
    <g fill="#222222">
        <path d="m 5 3 v 6 h 6 v -6 z m 2 1 h 3 v 1 h -3 z m 0 2 h 3 v 1 h -3 z m 0 0"/>
        <path d="m 6 6 c -1.859375 0 -3.585938 0.976562 -4.542969 2.574219 l -0.75 1.25 c -0.464843 0.769531 -0.707031 1.648437 -0.707031 2.546875 v 0.628906 c 0 0.550781 0.449219 1 1 1 h 3 c 0.550781 0 1 -0.449219 1 -1 v -3 c 0 -0.550781 0.449219 -1 1 -1 h 1 l -0.886719 -1.328125 c -0.074219 -0.113281 -0.113281 -0.242187 -0.113281 -0.378906 z m 0 0"/>
        <path d="m 4 7 v -1 c 0 -0.550781 -0.449219 -1 -1 -1 h -2 v -1 h 3 c 0.550781 0 1 0.449219 1 1 h 1 v 2 z m 0 0"/>
        <path d="m 15 3 l -1 1 h -3 v 2 h 5 v -3 z m 0 0"/>
        <path d="m 8 8 v 3 c -1.378906 -0.277344 -2.277344 -1.621094 -2 -3 z m 0 0"/>
    </g>
</svg>

<svg xmlns="http://www.w3.org/2000/svg" width="16" height="16"><g fill="#222"><path d="M5 3v6h6V3zm2 1h3v1H7zm0 2h3v1H7zm0 0"/><path d="M6 6c-1.86 0-3.586.977-4.543 2.574l-.75 1.25A4.918 4.918 0 0 0 0 12.371V13c0 .55.45 1 1 1h3c.55 0 1-.45 1-1v-3c0-.55.45-1 1-1h1l-.887-1.328A.684.684 0 0 1 6 7.293zm0 0"/><path d="M4 7V6c0-.55-.45-1-1-1H1V4h3c.55 0 1 .45 1 1h1v2zm11-4-1 1h-3v2h5V3zM8 8v3a2.551 2.551 0 0 1-2-3zm0 0"/></g></svg>
